X:45
T:Carolan's Draught
M:4/4
L:1/8
K:G
D2|:"G"GABc "D"defd|"G"g2fe d2Bd|"C"e2Ec "D"d2DB|"Am"c2Bc "D"ABcA|!
"G"GABc "D"defd|"Em"gfed "A"^cbag|"D"gfed "A"A2^c2|1 "D"d3e dcBA:|2 d6 f>g||!
"D"afga "G"bagf|"C"e/f/gfe "G"ed=cB|"C"edef gfga|"Em"bagf efga|
"G"bBbB "D"aBaB|"Em"gBgB "Bm"fBfB|"C"edef gfed|"C (Em)"e6zf|
"C"gfed cBAG|"C"e2d2 "G"d2DG|"Am"c2"G"B2 "F#"A2"Em"G2|"D"FGAF D2z2|
"C"EFGE "D"FGAF|"Em"GABG "F#dim"ABcA|"G"d2g2 bagf|"G"g2gf g2|]

